PROVIA.cube
TITLE "Generated by Resolve"
LUT_3D_SIZE 5
0 0 0
0.226368 0.0223545 0.00921645
0.553933 0.0448615 0.0291905
0.807599 0.0922866 0.0538338
0.976013 0.166445 0.0900587
0.0154574 0.268513 3.0518e-05
0.266285 0.269169 6.10361e-05
0.543191 0.283131 3.0518e-05
0.783352 0.317006 0
0.949538 0.360769 0.0259098
0.0535286 0.580789 0.000183108
0.289845 0.568612 0.000106813
0.547173 0.560189 0.000381476
0.7608 0.561791 0.000137331
0.911269 0.570962 0.010071
0.125628 0.797147 0.00469978
0.319402 0.782757 0.00285344
0.5393 0.766598 0.000137331
0.733745 0.755016 0.00781262
0.878218 0.749035 0.0303349
0.207187 0.92137 0.0677501
0.353857 0.911406 0.0635538
0.540246 0.896391 0.0626383
0.715312 0.883986 0.0711376
0.849714 0.87332 0.0977188
0.0132753 0.0167391 0.166476
0.312093 0.0336461 0.239734
0.643153 0.0528267 0.302602
0.866957 0.104417 0.34493
0.999634 0.177005 0.38114
0.00538643 0.318593 0.33518
0.303059 0.303059 0.303059
0.594598 0.307866 0.291463
0.821729 0.329885 0.299611
0.966735 0.365881 0.324651
0.0413367 0.596597 0.32604
0.298299 0.579507 0.296025
0.563989 0.564187 0.272709
0.773968 0.560037 0.268971
0.919509 0.566934 0.28397
0.113268 0.789319 0.313527
0.31664 0.77409 0.29453
0.542657 0.757534 0.272953
0.738415 0.7458 0.263401
0.88188 0.73875 0.274235
0.200458 0.910567 0.325734
0.353613 0.899519 0.314977
0.541787 0.886656 0.300084
0.717266 0.873075 0.295415
0.850141 0.862791 0.302129
0.0496834 0.0420844 0.403632
0.398901 0.0572518 0.535393
0.711727 0.0846723 0.596551
0.910307 0.137667 0.629084
0.999786 0.205066 0.644831
0.00251774 0.376059 0.666941
0.333684 0.353552 0.628824
0.635752 0.345769 0.60293
0.845594 0.356252 0.591318
0.979416 0.383429 0.592966
0.0192264 0.621424 0.646601
0.299275 0.599619 0.611704
0.578195 0.578195 0.578195
0.786572 0.570932 0.554604
0.928115 0.573846 0.549889
0.0934157 0.790463 0.606699
0.307774 0.775448 0.581033
0.543816 0.75787 0.553506
0.741955 0.743557 0.530388
0.884565 0.734585 0.525399
0.188907 0.900984 0.579629
0.346075 0.890715 0.566262
0.540444 0.878157 0.542702
0.717083 0.863783 0.526757
0.848157 0.851423 0.517311
0.118608 0.0888228 0.7028
0.491844 0.111696 0.837476
0.764401 0.141039 0.849638
0.93785 0.187945 0.856184
0.999954 0.247929 0.851438
0.00105287 0.432197 0.905592
0.359472 0.405005 0.874739
0.662425 0.390494 0.840757
0.862486 0.394675 0.818936
0.989105 0.413947 0.808377
0.0131991 0.649165 0.878187
0.299474 0.62536 0.840803
0.587396 0.603479 0.806745
0.796048 0.590738 0.778378
0.933822 0.5897 0.763195
0.0697642 0.800977 0.826795
0.296773 0.784817 0.802976
0.543282 0.76585 0.771923
0.749187 0.749187 0.749187
0.887434 0.741772 0.730953
0.162005 0.890898 0.772442
0.324819 0.880522 0.757839
0.526497 0.86685 0.73547
0.705104 0.8533 0.715953
0.838544 0.839902 0.696971
0.224079 0.17731 0.976059
0.551705 0.187915 0.998337
0.798871 0.207782 0.998337
0.953124 0.249699 0.994339
0.999893 0.299062 0.990463
0.0245365 0.483436 0.999969
0.3888 0.457328 0.999512
0.682857 0.439155 0.992279
0.873411 0.438514 0.975814
0.997192 0.452476 0.957427
0.0276951 0.678233 0.999252
0.30486 0.655741 0.993896
0.59588 0.631891 0.962707
0.80499 0.617716 0.936431
0.941146 0.613443 0.918837
0.0561685 0.804852 0.968765
0.282094 0.790478 0.945464
0.538018 0.771649 0.920089
0.742245 0.755199 0.893339
0.881407 0.742519 0.870939
0.137301 0.880003 0.903365
0.300557 0.870024 0.889937
0.503822 0.856718 0.87071
0.689509 0.842405 0.845121
0.828595 0.828595 0.828595
