PROVIA.cube
TITLE "Generated by Resolve"
LUT_3D_SIZE 9
0 0 0
0.10457 0.00920119 0.00541695
0.226368 0.0223545 0.00921645
0.377005 0.0335393 0.0184482
0.553933 0.0448615 0.0291905
0.693492 0.0657511 0.0392462
0.807599 0.0922866 0.0538338
0.901778 0.128618 0.0660716
0.976013 0.166445 0.0900587
0.009308 0.122698 0.000106813
0.127123 0.128298 0.00030518
0.259937 0.132662 0.000122072
0.399664 0.143725 0.000457771
0.544152 0.159335 6.10361e-05
0.676127 0.179965 0.0016022
0.789151 0.205783 0.00648508
0.888457 0.234821 0.0235142
0.965164 0.266117 0.0517739
0.0154574 0.268513 3.0518e-05
0.138796 0.267811 0
0.266285 0.269169 6.10361e-05
0.405737 0.275105 0.000259403
0.543191 0.283131 3.0518e-05
0.671382 0.298024 7.62951e-05
0.783352 0.317006 0
0.875242 0.337484 0.00308232
0.949538 0.360769 0.0259098
0.0321965 0.427787 0.000137331
0.151568 0.423529 0.000244144
0.27866 0.419226 0.00047303
0.413703 0.419852 4.57771e-05
0.544671 0.422614 6.10361e-05
0.668437 0.429023 0.000213626
0.773922 0.440055 0
0.860777 0.452811 0.00163272
0.92958 0.467658 0.0121004
0.0535286 0.580789 0.000183108
0.17203 0.5738 0.000381476
0.289845 0.568612 0.000106813
0.417639 0.563882 4.57771e-05
0.547173 0.560189 0.000381476
0.661936 0.559838 6.10361e-05
0.7608 0.561791 0.000137331
0.842191 0.565774 0.000320439
0.911269 0.570962 0.010071
0.0896468 0.704082 0.000885023
0.196963 0.69659 0.000350958
0.302922 0.690166 0.000640879
0.423255 0.682582 0.000595102
0.54406 0.674632 0
0.652232 0.669169 0.000411994
0.746761 0.666758 0.000183108
0.826062 0.665766 0.00421149
0.893324 0.66598 0.0187686
0.125628 0.797147 0.00469978
0.222522 0.789731 0.00410468
0.319402 0.782757 0.00285344
0.427817 0.77496 0.00030518
0.5393 0.766598 0.000137331
0.641184 0.759869 0.00172427
0.733745 0.755016 0.00781262
0.812604 0.751461 0.0152132
0.878218 0.749035 0.0303349
0.166537 0.867658 0.0281987
0.249836 0.861097 0.0225223
0.333715 0.854704 0.018616
0.433158 0.847715 0.016022
0.536797 0.840146 0.0163882
0.634791 0.832746 0.0210574
0.722026 0.827405 0.0301823
0.798077 0.821637 0.0432593
0.861494 0.816678 0.0593576
0.207187 0.92137 0.0677501
0.277638 0.916671 0.0650187
0.353857 0.911406 0.0635538
0.447272 0.903746 0.0603189
0.540246 0.896391 0.0626383
0.632547 0.890196 0.0647898
0.715312 0.883986 0.0711376
0.786267 0.878355 0.0830701
0.849714 0.87332 0.0977188
0.00302129 0.00865187 0.0841382
0.135073 0.018265 0.105623
0.275303 0.0264744 0.122637
0.441535 0.0343938 0.140505
0.607095 0.0475929 0.15935
0.733639 0.0673838 0.178195
0.841901 0.0954604 0.202625
0.928847 0.130983 0.22678
0.993088 0.171054 0.250263
0.00576791 0.147448 0.155276
0.146349 0.146349 0.146349
0.289982 0.150408 0.138048
0.437385 0.156435 0.141421
0.581537 0.170428 0.144183
0.710735 0.187472 0.155871
0.820371 0.212665 0.171221
0.910918 0.238926 0.192035
0.976974 0.268971 0.214405
0.0123903 0.294423 0.161334
0.145617 0.287617 0.146319
0.286473 0.285832 0.137606
0.431052 0.288334 0.131441
0.572213 0.295003 0.131106
0.697841 0.306188 0.13817
0.804776 0.321462 0.15256
0.891478 0.339925 0.167376
0.959319 0.361944 0.190753
0.0249027 0.447333 0.15819
0.156435 0.439841 0.142931
0.290272 0.432761 0.133242
0.430182 0.42855 0.12369
0.564691 0.429129 0.120912
0.68542 0.43328 0.12195
0.788006 0.440864 0.134066
0.869856 0.452918 0.150942
0.936721 0.465492 0.169497
0.0465553 0.587793 0.159106
0.173632 0.579141 0.14432
0.295033 0.572351 0.131014
0.428519 0.56611 0.119158
0.557122 0.561563 0.114534
0.672175 0.557717 0.118029
0.769131 0.559197 0.127886
0.849073 0.562799 0.137774
0.916579 0.566461 0.156588
0.0809644 0.703441 0.156832
0.194217 0.695293 0.145647
0.305562 0.686931 0.134783
0.426688 0.678767 0.12604
0.547814 0.669871 0.122591
0.656825 0.664164 0.124422
0.751949 0.660731 0.128893
0.830427 0.659754 0.138811
0.89691 0.661357 0.152331
0.121569 0.791745 0.16466
0.22005 0.785336 0.155764
0.319371 0.777081 0.148653
0.429862 0.769009 0.139254
0.542596 0.761669 0.135988
0.644846 0.754681 0.135149
0.736324 0.749493 0.135775
0.815625 0.745373 0.142306
0.879622 0.74255 0.15642
0.162875 0.860761 0.17821
0.247807 0.855253 0.17203
0.334005 0.848417 0.166155
0.434607 0.841169 0.160266
0.53753 0.833494 0.154803
0.636027 0.826566 0.152102
0.723491 0.820722 0.155566
0.8 0.814878 0.162966
0.863828 0.810849 0.174395
0.204578 0.914961 0.19968
0.276509 0.909606 0.197192
0.353521 0.903822 0.193317
0.446937 0.897383 0.186984
0.540124 0.891539 0.185489
0.632349 0.884764 0.183032
0.716564 0.877882 0.185519
0.788144 0.872602 0.190036
0.850278 0.868223 0.199466
0.0132753 0.0167391 0.166476
0.159609 0.0244144 0.206317
0.312093 0.0336461 0.239734
0.489937 0.0394598 0.277897
0.643153 0.0528267 0.302602
0.766278 0.0755016 0.321706
0.866957 0.104417 0.34493
0.947173 0.140246 0.364614
0.999634 0.177005 0.38114
0.00419623 0.170932 0.313237
0.157061 0.168444 0.30045
0.309743 0.166537 0.294606
0.465843 0.173175 0.293584
0.610468 0.184344 0.295506
0.737301 0.201022 0.305669
0.841093 0.221973 0.319554
0.924285 0.246998 0.334218
0.984039 0.273899 0.350378
0.00538643 0.318593 0.33518
0.152453 0.309758 0.31545
0.303059 0.303059 0.303059
0.452216 0.304051 0.292393
0.594598 0.307866 0.291463
0.719753 0.316442 0.293233
0.821729 0.329885 0.299611
0.901686 0.346944 0.310262
0.966735 0.365881 0.324651
0.0162203 0.464225 0.334585
0.158068 0.455589 0.315908
0.297932 0.446586 0.299901
0.440452 0.441596 0.286748
0.579538 0.43978 0.282017
0.697688 0.441642 0.277348
0.797726 0.446159 0.282338
0.87776 0.4551 0.290837
0.942107 0.465888 0.303929
0.0413367 0.596597 0.32604
0.169879 0.588449 0.310216
0.298299 0.579507 0.296025
0.432975 0.571572 0.279179
0.563989 0.564187 0.272709
0.678584 0.559853 0.271275
0.773968 0.560037 0.268971
0.853315 0.562478 0.272862
0.919509 0.566934 0.28397
0.0745861 0.704067 0.31693
0.189853 0.695781 0.303166
0.303044 0.687083 0.291432
0.42948 0.677272 0.280446
0.550423 0.669657 0.270344
0.660731 0.663951 0.264515
0.75613 0.6598 0.264591
0.834073 0.65771 0.266789
0.898558 0.658625 0.274388
0.113268 0.789319 0.313527
0.216846 0.78117 0.306218
0.31664 0.77409 0.29453
0.429053 0.767025 0.281025
0.542657 0.757534 0.272953
0.647272 0.751369 0.266575
0.738415 0.7458 0.263401
0.815869 0.740826 0.268345
0.88188 0.73875 0.274235
0.156283 0.855619 0.31667
0.24448 0.848692 0.30898
0.329915 0.843992 0.300343
0.432776 0.836744 0.290166
0.537102 0.828962 0.281346
0.637858 0.821027 0.278004
0.72433 0.815167 0.276646
0.800031 0.810895 0.279271
0.864271 0.806027 0.284215
0.200458 0.910567 0.325734
0.27509 0.905165 0.320821
0.353613 0.899519 0.314977
0.44683 0.893095 0.305547
0.541787 0.886656 0.300084
0.633188 0.879835 0.29691
0.717266 0.873075 0.295415
0.788357 0.868025 0.295857
0.850141 0.862791 0.302129
0.0267185 0.0282444 0.275257
0.188357 0.0362097 0.332677
0.353185 0.0417334 0.382574
0.535271 0.0506142 0.42739
0.678218 0.0656748 0.449226
0.795666 0.0897231 0.468925
0.889952 0.119722 0.488884
0.965316 0.153521 0.505562
0.999863 0.189471 0.516747
0.000961318 0.203464 0.481804
0.174823 0.194003 0.462821
0.338155 0.191363 0.456672
0.496391 0.194339 0.450462
0.641215 0.204486 0.453437
0.763363 0.218173 0.458976
0.861585 0.236881 0.467918
0.937575 0.259419 0.479057
0.988907 0.284276 0.488106
0.00668345 0.347311 0.508659
0.159716 0.33669 0.486564
0.31606 0.328984 0.468284
0.47422 0.323598 0.457862
0.616419 0.325063 0.451118
0.738445 0.331518 0.447471
0.834714 0.342199 0.45034
0.911604 0.356023 0.456458
0.974227 0.373068 0.464363
0.0131075 0.487327 0.510567
0.154238 0.475517 0.488472
0.303044 0.466239 0.471778
0.456184 0.456184 0.456184
0.593561 0.451667 0.442237
0.709621 0.451316 0.434592
0.805692 0.455558 0.432151
0.88368 0.461509 0.435981
0.94757 0.472801 0.44033
0.0326543 0.607446 0.497597
0.164752 0.598535 0.478614
0.299092 0.588037 0.461753
0.438972 0.578271 0.444144
0.569833 0.570581 0.430777
0.683696 0.565606 0.422202
0.779965 0.563317 0.417227
0.858213 0.565255 0.415976
0.923919 0.569574 0.422889
0.0635538 0.708034 0.482094
0.183246 0.699413 0.467826
0.300175 0.690028 0.451575
0.430335 0.680629 0.436393
0.555154 0.672099 0.42388
0.664805 0.665141 0.412558
0.759152 0.659907 0.406867
0.837186 0.657298 0.406485
0.900862 0.65771 0.409003
0.104585 0.789242 0.468452
0.209781 0.781292 0.456626
0.312734 0.773556 0.444053
0.428428 0.764828 0.431525
0.543664 0.757 0.418921
0.648493 0.749691 0.407782
0.740841 0.744015 0.403037
0.818021 0.73843 0.40029
0.882338 0.735973 0.40061
0.14725 0.8533 0.458412
0.240665 0.847288 0.448524
0.327886 0.841138 0.439979
0.432166 0.833127 0.429664
0.538766 0.824826 0.419425
0.637736 0.817945 0.410971
0.725765 0.812497 0.404654
0.801221 0.807324 0.403037
0.865476 0.802579 0.406851
0.197101 0.906508 0.45623
0.272374 0.900771 0.448859
0.3505 0.894835 0.442588
0.444862 0.888197 0.435691
0.543145 0.881163 0.427619
0.634699 0.874647 0.419348
0.717662 0.869322 0.413794
0.787793 0.863111 0.411032
0.849775 0.856672 0.412314
0.0496834 0.0420844 0.403632
0.226642 0.0501411 0.473243
0.398901 0.0572518 0.535393
0.57467 0.0673381 0.578943
0.711727 0.0846723 0.596551
0.821439 0.109667 0.613138
0.910307 0.137667 0.629084
0.980896 0.170825 0.636896
0.999786 0.205066 0.644831
0.00729381 0.234806 0.643076
0.194263 0.225101 0.624872
0.36405 0.220401 0.614237
0.526635 0.219364 0.609766
0.666957 0.227863 0.605081
0.785611 0.23714 0.608408
0.877729 0.254917 0.610422
0.947402 0.275105 0.611963
0.992844 0.297475 0.616266
0.00251774 0.376059 0.666941
0.167865 0.363012 0.645441
0.333684 0.353552 0.628824
0.493248 0.347539 0.612421
0.635752 0.345769 0.60293
0.752728 0.348775 0.594568
0.845594 0.356252 0.591318
0.918883 0.369146 0.590494
0.979416 0.383429 0.592966
0.00857557 0.508629 0.662989
0.156237 0.495232 0.643549
0.309163 0.484886 0.625727
0.464851 0.473823 0.607507
0.602564 0.467552 0.58967
0.719005 0.46508 0.577432
0.81416 0.46569 0.571313
0.890074 0.471702 0.569482
0.954025 0.47953 0.573571
0.0192264 0.621424 0.646601
0.157717 0.609705 0.630121
0.299275 0.599619 0.611704
0.443122 0.588373 0.591959
0.578195 0.578195 0.578195
0.68954 0.574472 0.564157
0.786572 0.570932 0.554604
0.863096 0.572015 0.550729
0.928115 0.573846 0.549889
0.0578317 0.715648 0.626032
0.177172 0.705653 0.608743
0.300481 0.696345 0.594339
0.430274 0.685512 0.580041
0.556924 0.676356 0.564416
0.66746 0.668681 0.551553
0.76231 0.663615 0.540322
0.840223 0.660288 0.534966
0.904433 0.659678 0.532815
0.0934157 0.790463 0.606699
0.199893 0.782864 0.593317
0.307774 0.775448 0.581033
0.425757 0.766155 0.567788
0.543816 0.75787 0.553506
0.649409 0.749386 0.53991
0.741955 0.743557 0.530388
0.819379 0.73959 0.524422
0.884565 0.734585 0.525399
0.136995 0.852659 0.592615
0.231586 0.846586 0.58201
0.322316 0.840742 0.571817
0.429099 0.832578 0.559274
0.538903 0.823682 0.547921
0.638819 0.816587 0.538033
0.72932 0.809964 0.528023
0.803449 0.804425 0.524422
0.866255 0.80061 0.522499
0.188907 0.900984 0.579629
0.267384 0.896101 0.573709
0.346075 0.890715 0.566262
0.440299 0.884276 0.554543
0.540444 0.878157 0.542702
0.632425 0.870405 0.535821
0.717083 0.863783 0.526757
0.787823 0.856596 0.523186
0.848157 0.851423 0.517311
0.0821088 0.0606088 0.546593
0.269352 0.0704204 0.626749
0.450431 0.0766918 0.700008
0.609491 0.0911879 0.720073
0.740749 0.111513 0.730571
0.844099 0.135103 0.743542
0.927565 0.160281 0.751934
0.988769 0.191974 0.753536
0.999954 0.224567 0.75462
0.0110933 0.269749 0.787335
0.216022 0.257435 0.76733
0.38851 0.25095 0.755673
0.550988 0.249256 0.744076
0.691676 0.250889 0.741314
0.803647 0.261067 0.736171
0.887861 0.275273 0.732738
0.955947 0.294179 0.731609
0.996628 0.313436 0.729747
0.00914015 0.406058 0.802197
0.177691 0.390036 0.77937
0.346883 0.379812 0.763378
0.508705 0.370871 0.74699
0.650156 0.366354 0.733211
0.764111 0.368704 0.722316
0.854734 0.373266 0.715175
0.926314 0.38439 0.71014
0.984756 0.398703 0.707912
0.00677501 0.529015 0.793835
0.15613 0.515145 0.775647
0.314611 0.50309 0.756313
0.471595 0.491691 0.735149
0.61146 0.484276 0.718059
0.72842 0.480674 0.704509
0.821515 0.480369 0.693782
0.895323 0.484443 0.687541
0.958572 0.491234 0.684382
0.0222477 0.63537 0.773693
0.155428 0.623407 0.756069
0.29958 0.612253 0.737591
0.446204 0.601007 0.718837
0.581704 0.591485 0.700984
0.696345 0.58439 0.686488
0.791836 0.580194 0.675914
0.867918 0.579568 0.669474
0.930953 0.579873 0.664515
0.0395514 0.722896 0.750652
0.171267 0.712566 0.734218
0.298283 0.703029 0.719188
0.431479 0.691691 0.701701
0.559457 0.683055 0.684321
0.673762 0.673762 0.673762
0.765515 0.669215 0.659022
0.842634 0.664469 0.651118
0.908019 0.663798 0.64509
0.0811475 0.795331 0.72697
0.191241 0.786862 0.713039
0.303655 0.778317 0.700053
0.423423 0.769711 0.687129
0.544686 0.760555 0.673304
0.651728 0.7523 0.658518
0.743999 0.74612 0.647715
0.822309 0.74049 0.63917
0.886824 0.738216 0.631678
0.126131 0.85449 0.709041
0.221485 0.848508 0.697917
0.316701 0.842008 0.686748
0.427604 0.833112 0.675532
0.538445 0.824445 0.66125
0.639261 0.817349 0.648539
0.729686 0.809705 0.638804
0.803265 0.80441 0.631876
0.866667 0.799344 0.626886
0.175387 0.896178 0.684001
0.257908 0.891066 0.677638
0.337682 0.885634 0.670756
0.434256 0.880354 0.659571
0.533486 0.872282 0.648356
0.62768 0.865766 0.638132
0.711803 0.858076 0.627955
0.784375 0.851087 0.61976
0.843488 0.845899 0.613794
0.118608 0.0888228 0.7028
0.317174 0.0999924 0.782605
0.491844 0.111696 0.837476
0.639796 0.122362 0.842405
0.764401 0.141039 0.849638
0.862257 0.162158 0.854109
0.93785 0.187945 0.856184
0.994186 0.216556 0.854047
0.999954 0.247929 0.851438
0.0278935 0.301427 0.897353
0.240909 0.289006 0.88336
0.412772 0.281407 0.871916
0.571298 0.278874 0.860075
0.707835 0.278264 0.853727
0.814969 0.285405 0.842817
0.896391 0.297826 0.8374
0.96286 0.314733 0.831403
0.998596 0.333349 0.827619
0.00105287 0.432197 0.905592
0.189914 0.417288 0.890745
0.359472 0.405005 0.874739
0.523354 0.393988 0.859739
0.662425 0.390494 0.840757
0.773404 0.389715 0.827298
0.862486 0.394675 0.818936
0.932662 0.402808 0.811978
0.989105 0.413947 0.808377
0.00769055 0.549142 0.897017
0.160006 0.535714 0.882277
0.320943 0.52311 0.862165
0.480354 0.511955 0.842954
0.620035 0.502541 0.824643
0.736339 0.497322 0.811643
0.827497 0.496422 0.798657
0.901595 0.498405 0.791455
0.962982 0.502602 0.784649
0.0131991 0.649165 0.878187
0.15349 0.63679 0.860563
0.299474 0.62536 0.840803
0.450202 0.613977 0.823651
0.587396 0.603479 0.806745
0.700175 0.596429 0.792264
0.796048 0.590738 0.778378
0.872358 0.589624 0.768612
0.933822 0.5897 0.763195
0.0337072 0.732738 0.851591
0.164324 0.72166 0.83563
0.294301 0.712749 0.820951
0.431556 0.701411 0.806012
0.560952 0.691356 0.788373
0.675181 0.682643 0.773022
0.768643 0.676341 0.761624
0.846403 0.671962 0.751217
0.909987 0.669627 0.745724
0.0697642 0.800977 0.826795
0.182239 0.792508 0.815351
0.296773 0.784817 0.802976
0.421592 0.775296 0.78732
0.543282 0.76585 0.771923
0.654459 0.757763 0.758236
0.749187 0.749187 0.749187
0.823453 0.745434 0.736461
0.887434 0.741772 0.730953
0.11429 0.853086 0.801648
0.210071 0.847074 0.791409
0.311238 0.840223 0.780148
0.421805 0.832959 0.768353
0.535744 0.824033 0.756069
0.637827 0.816175 0.742733
0.726543 0.80856 0.733089
0.800092 0.80264 0.722896
0.861967 0.797223 0.712383
0.162005 0.890898 0.772442
0.243778 0.885725 0.764874
0.324819 0.880522 0.757839
0.423911 0.874067 0.748058
0.526497 0.86685 0.73547
0.61915 0.860044 0.724971
0.705104 0.8533 0.715953
0.778561 0.845548 0.705699
0.838544 0.839902 0.696971
0.169909 0.127962 0.8607
0.365332 0.140871 0.92697
0.523659 0.148318 0.941588
0.66421 0.158373 0.943175
0.782635 0.174212 0.943832
0.875273 0.192752 0.943114
0.946609 0.217884 0.94197
0.998459 0.245624 0.937087
0.99971 0.271992 0.931502
0.0546273 0.331914 0.987289
0.265293 0.320897 0.97464
0.4318 0.311559 0.96556
0.590677 0.304814 0.954025
0.721782 0.305516 0.943908
0.825666 0.311406 0.934859
0.904509 0.323262 0.923781
0.969436 0.337667 0.91664
0.999496 0.35378 0.908858
0.0200504 0.457588 0.989517
0.202274 0.443519 0.975586
0.37348 0.432135 0.963912
0.536278 0.4206 0.946868
0.673915 0.415167 0.929381
0.782513 0.413642 0.91632
0.86923 0.416632 0.904646
0.938277 0.422385 0.897124
0.993271 0.431907 0.889601
0.00523384 0.570886 0.979522
0.165057 0.555917 0.967437
0.330007 0.543175 0.950164
0.489662 0.530938 0.929595
0.626429 0.522225 0.909911
0.742535 0.515114 0.895277
0.831983 0.512871 0.884321
0.905226 0.514687 0.875349
0.966415 0.516564 0.867781
0.0127108 0.663783 0.956939
0.151217 0.651408 0.942443
0.302419 0.63949 0.927001
0.454887 0.627771 0.90811
0.591043 0.617197 0.891035
0.705699 0.609216 0.878309
0.799985 0.603159 0.864652
0.876341 0.600183 0.854414
0.938903 0.600855 0.848066
0.0438544 0.743496 0.93257
0.155962 0.733028 0.91957
0.290166 0.722988 0.905028
0.431968 0.710643 0.887785
0.56405 0.701167 0.87451
0.677714 0.692363 0.859846
0.771389 0.685557 0.846784
0.849256 0.680934 0.835325
0.912581 0.677897 0.827054
0.0566873 0.804105 0.905837
0.174304 0.797284 0.894148
0.28751 0.789029 0.882979
0.417731 0.77969 0.870665
0.542077 0.770886 0.855665
0.65388 0.761257 0.840528
0.748714 0.753964 0.82887
0.822721 0.74844 0.81709
0.885145 0.74406 0.80705
0.101335 0.850431 0.875929
0.197482 0.844694 0.866392
0.300237 0.838178 0.85655
0.412772 0.830396 0.844663
0.52781 0.821591 0.831891
0.631281 0.813993 0.818158
0.721889 0.806607 0.807157
0.798016 0.798016 0.798016
0.85861 0.793042 0.787472
0.147997 0.885039 0.846235
0.229694 0.880049 0.838834
0.314366 0.87483 0.828138
0.412406 0.868589 0.818112
0.514687 0.862119 0.807294
0.610727 0.855131 0.796139
0.697139 0.84773 0.785168
0.772183 0.840589 0.777325
0.832822 0.834607 0.768215
0.224079 0.17731 0.976059
0.406775 0.185489 0.998398
0.551705 0.187915 0.998337
0.685893 0.19501 0.996521
0.798871 0.207782 0.998337
0.884581 0.226658 0.99588
0.953124 0.249699 0.994339
1 0.272999 0.993622
0.999893 0.299062 0.990463
0.0855573 0.363714 0.999985
0.292073 0.351156 0.999725
0.453956 0.341436 0.999634
0.608286 0.335622 0.999847
0.734218 0.336004 0.997131
0.833753 0.338964 0.993362
0.911635 0.348791 0.990524
0.973281 0.361196 0.98555
0.999802 0.376669 0.97821
0.0245365 0.483436 0.999969
0.221027 0.468849 0.999557
0.3888 0.457328 0.999512
0.547463 0.447242 0.996841
0.682857 0.439155 0.992279
0.789761 0.43714 0.987121
0.873411 0.438514 0.975814
0.942046 0.443412 0.9664
0.997192 0.452476 0.957427
0.0211795 0.58883 0.999588
0.174105 0.574975 1
0.339513 0.562249 0.997208
0.497688 0.550439 0.991058
0.63563 0.540917 0.982086
0.748394 0.533791 0.967483
0.837552 0.530327 0.955306
0.909667 0.530007 0.945907
0.969253 0.533928 0.937743
0.0276951 0.678233 0.999252
0.152804 0.667262 0.996124
0.30486 0.655741 0.993896
0.460075 0.641779 0.979034
0.59588 0.631891 0.962707
0.710826 0.623499 0.948653
0.80499 0.617716 0.936431
0.879438 0.614221 0.92723
0.941146 0.613443 0.918837
0.0235447 0.751537 0.994079
0.153323 0.741436 0.986496
0.289647 0.732204 0.973724
0.432532 0.721538 0.958068
0.565805 0.710918 0.943786
0.67985 0.701183 0.929229
0.772778 0.694453 0.917556
0.848768 0.687572 0.9066
0.911955 0.683574 0.893706
0.0561685 0.804852 0.968765
0.162936 0.798047 0.958114
0.282094 0.790478 0.945464
0.411597 0.781155 0.934051
0.538018 0.771649 0.920089
0.647456 0.763088 0.906752
0.742245 0.755199 0.893339
0.817777 0.748867 0.880247
0.881407 0.742519 0.870939
0.0841688 0.84625 0.937118
0.184573 0.840879 0.926894
0.286763 0.834745 0.91751
0.401999 0.827207 0.907057
0.51986 0.818341 0.893172
0.622538 0.810544 0.882246
0.714 0.803281 0.870268
0.791119 0.795254 0.858701
0.852064 0.790311 0.84651
0.137301 0.880003 0.903365
0.215381 0.87538 0.896544
0.300557 0.870024 0.889937
0.399725 0.863661 0.881086
0.503822 0.856718 0.87071
0.601144 0.850065 0.856367
0.689509 0.842405 0.845121
0.763363 0.836057 0.837018
0.828595 0.828595 0.828595
