PROVIA.cube
TITLE "Generated by Resolve"
LUT_3D_SIZE 65
0 0 0
0.0371862 0.00404364 0.00143435
0.0466621 0.00479133 0.00141909
0.0556039 0.00561532 0.00207523
0.0652476 0.00642405 0.00167849
0.0746624 0.00729381 0.002533
0.0844129 0.00898756 0.00512703
0.0944228 0.00863661 0.00486763
0.10457 0.00920119 0.00541695
0.117556 0.0109255 0.00569161
0.132692 0.0119326 0.00585946
0.145922 0.0126192 0.00628672
0.161395 0.0142977 0.00794995
0.176883 0.0167086 0.010193
0.192889 0.0187686 0.00857557
0.209445 0.0205386 0.0083772
0.226368 0.0223545 0.00921645
0.244144 0.024094 0.00955215
0.261967 0.0251774 0.0122683
0.280919 0.0264439 0.0148775
0.300343 0.0273442 0.0165255
0.319646 0.0284733 0.0167544
0.338674 0.0299535 0.0171511
0.358007 0.0317388 0.0179904
0.377005 0.0335393 0.0184482
0.398764 0.0347601 0.0212406
0.420935 0.0360418 0.0223239
0.442924 0.0374609 0.0228733
0.464622 0.0391394 0.0232395
0.485832 0.0408789 0.0235904
0.508797 0.0423896 0.0252689
0.531579 0.0436103 0.0272679
0.553933 0.0448615 0.0291905
0.575296 0.0470741 0.0302892
0.593942 0.0492561 0.0317082
0.610697 0.051545 0.0330968
0.628382 0.0540017 0.0349737
0.645884 0.0564431 0.0368353
0.662943 0.0588693 0.0385138
0.678614 0.0624552 0.0389715
0.693492 0.0657511 0.0392462
0.708171 0.0689708 0.0393988
0.722652 0.0722057 0.0397803
0.737438 0.0755627 0.0419928
0.752209 0.078645 0.0444648
0.766918 0.0813458 0.0471809
0.781033 0.0844129 0.0497597
0.79443 0.0879835 0.0521401
0.807599 0.0922866 0.0538338
0.8206 0.09691 0.0550088
0.833082 0.101625 0.0563516
0.844999 0.106416 0.0578622
0.85687 0.110506 0.0594034
0.868757 0.114595 0.0608377
0.880446 0.118914 0.0623178
0.891203 0.123781 0.0642252
0.901778 0.128618 0.0660716
0.912383 0.133364 0.0683299
0.922881 0.138079 0.0708629
0.932662 0.142718 0.0737469
0.942184 0.147173 0.0766766
0.951659 0.151736 0.0798199
0.961135 0.156435 0.0832227
0.970459 0.161105 0.0865797
0.976013 0.166445 0.0900587
0.00321965 0.0395209 0.00242618
0.0411078 0.0418402 0.0018616
0.0525063 0.0453193 3.0518e-05
0.0624552 0.0456092 0.000762951
0.0719768 0.0456855 0.00144961
0.0806592 0.0468605 0.000701915
0.0916915 0.0465095 0.000320439
0.10425 0.0472572 0.000869764
0.115953 0.0480812 0.00181582
0.129671 0.0493629 0.00131228
0.143587 0.0507515 0.000701915
0.160052 0.0518807 0.00128176
0.175998 0.0529641 0.000946059
0.19234 0.0544289 0.00128176
0.208118 0.0558022 0.00157168
0.226566 0.0566262 0.00141909
0.244327 0.0573587 0.00268559
0.263066 0.0582284 0.00331121
0.281361 0.0591745 0.00456245
0.299825 0.0601663 0.00450141
0.318791 0.0614023 0.00323491
0.337743 0.0627756 0.00242618
0.357733 0.0641337 0.00364691
0.378012 0.0650797 0.00543221
0.399237 0.0662547 0.00769055
0.4206 0.0674907 0.0100862
0.441291 0.0688945 0.0122225
0.460136 0.071107 0.0130312
0.479026 0.0732891 0.013901
0.497398 0.0754711 0.0141756
0.51516 0.0776074 0.0134127
0.532586 0.0797436 0.012604
0.550607 0.0814374 0.0126192
0.568826 0.0835431 0.0134432
0.586664 0.0858015 0.0140536
0.604105 0.0881971 0.0150301
0.621317 0.0908522 0.0169833
0.638209 0.0935531 0.0188602
0.654719 0.096437 0.0203708
0.670344 0.0988785 0.0213474
0.685985 0.101625 0.022797
0.701579 0.104479 0.0250401
0.716823 0.10782 0.026154
0.731762 0.111604 0.0261692
0.746426 0.115389 0.026154
0.760754 0.11931 0.0267491
0.774563 0.122774 0.0284276
0.787961 0.126223 0.03093
0.801175 0.129656 0.0336614
0.81416 0.133074 0.0363317
0.826871 0.13698 0.0381323
0.839323 0.141192 0.039765
0.851499 0.145739 0.0415808
0.863478 0.150271 0.0433356
0.874968 0.15462 0.0458228
0.886 0.158907 0.0489662
0.89688 0.16318 0.0520485
0.907591 0.167452 0.0550698
0.918212 0.172351 0.0570382
0.928206 0.176974 0.0598306
0.938048 0.181582 0.0625772
0.947723 0.186114 0.0652628
0.957183 0.19057 0.0679026
0.965866 0.195071 0.0716106
0.972305 0.200259 0.0758221
0.00552377 0.0518349 0.00309758
0.0407721 0.0549935 3.0518e-05
0.0542916 0.0558022 0.000106813
0.0645151 0.0563363 0.000869764
0.0744793 0.0571908 0.0018616
0.0845655 0.0585794 0.00163272
0.0944686 0.0593729 0.00103761
0.105425 0.059678 0.00138857
0.118441 0.0605173 0.0011902
0.134234 0.0610971 0.00106813
0.148547 0.061799 0.000686656
0.16257 0.0628519 0.000961318
0.17763 0.0642405 0.00166323
0.194598 0.0655222 0.00184634
0.211902 0.0664683 0.00138857
0.230411 0.0675059 0.000823987
0.248798 0.0688029 0.000640879
0.268086 0.0687572 0.00047303
0.28629 0.069398 0.00120546
0.305913 0.0706951 0.000946059
0.325444 0.0722667 0.000381476
0.344564 0.0736858 0.000442512
0.363455 0.0750896 0.00132753
0.381567 0.0766613 0.00216678
0.400595 0.0784924 0.00282292
0.420188 0.0799268 0.00444038
0.439857 0.0813306 0.00613413
0.459358 0.0830854 0.007187
0.478523 0.0844587 0.00833143
0.497108 0.0862287 0.00927749
0.51487 0.0884108 0.00941482
0.532265 0.0906386 0.00952163
0.549767 0.09308 0.00915541
0.567239 0.0956741 0.00843824
0.584543 0.0980392 0.00796521
0.601999 0.100557 0.00891127
0.619348 0.103197 0.0108339
0.636378 0.105821 0.012726
0.65304 0.1084 0.0145876
0.669139 0.110689 0.016556
0.684962 0.113008 0.0184634
0.700481 0.115358 0.0202945
0.715648 0.11873 0.0213321
0.730495 0.122789 0.0220645
0.745022 0.12668 0.0231937
0.759258 0.13048 0.0244907
0.773129 0.133532 0.0261082
0.786587 0.136629 0.0281224
0.799741 0.139818 0.0303655
0.812833 0.144137 0.0311589
0.825223 0.148104 0.0334478
0.837385 0.152056 0.0358434
0.849577 0.156359 0.0377356
0.861555 0.160754 0.0399329
0.872953 0.165179 0.0426337
0.884047 0.169482 0.0454871
0.895048 0.174166 0.0476387
0.905867 0.178851 0.0497444
0.916487 0.183474 0.0518959
0.926513 0.187854 0.0548104
0.936385 0.192218 0.0576638
0.94612 0.196582 0.0604562
0.955703 0.20116 0.0636454
0.964599 0.206088 0.0672618
0.971908 0.211337 0.0703136
0.00549325 0.0610361 0.00125124
0.0420539 0.0644236 0.000732433
0.0543526 0.0654459 0.000732433
0.0653391 0.0660563 0.000869764
0.0757763 0.0669566 0.00146487
0.0865339 0.068452 0.0019379
0.0978408 0.0690471 0.00103761
0.107393 0.0691386 0.000717174
0.120363 0.0699321 0.000656138
0.135698 0.070634 0.000549325
0.150423 0.0716411 0.000106813
0.164462 0.0725567 0.000213626
0.18027 0.0736858 0.000320439
0.196643 0.0747845 0.000213626
0.214374 0.0755779 4.57771e-05
0.233127 0.0764935 0
0.251087 0.0776226 1.5259e-05
0.270024 0.0777447 7.62951e-05
0.288548 0.0784772 0.000137331
0.308553 0.0798047 7.62951e-05
0.32781 0.0813611 4.57771e-05
0.346746 0.0825513 1.5259e-05
0.36556 0.0834363 0
0.38381 0.0847181 0.000640879
0.402777 0.086244 0.00135805
0.420691 0.0887617 0.00201419
0.439261 0.0906691 0.00239567
0.458701 0.0921798 0.00341802
0.477791 0.09337 0.00485237
0.496391 0.0950332 0.00605783
0.514565 0.0969711 0.00712596
0.532311 0.0989548 0.00807202
0.549722 0.101335 0.00759899
0.566888 0.104005 0.00688182
0.583749 0.10663 0.00616464
0.600809 0.109728 0.0062562
0.618173 0.112673 0.00694286
0.635309 0.115175 0.00807202
0.651926 0.117525 0.0100404
0.667994 0.119661 0.0120851
0.683162 0.122423 0.0137179
0.698024 0.125216 0.0152895
0.713466 0.128557 0.0170138
0.728878 0.131945 0.0191806
0.743969 0.135271 0.0214847
0.758221 0.138888 0.0228275
0.772091 0.141833 0.0243229
0.78587 0.145785 0.0246128
0.799176 0.149966 0.025452
0.812284 0.154147 0.0262455
0.824628 0.157855 0.0287938
0.836774 0.161563 0.0313268
0.848707 0.165331 0.0339666
0.860334 0.169375 0.0371252
0.871595 0.173892 0.0393072
0.882734 0.178576 0.0412451
0.893751 0.183078 0.0434882
0.904585 0.187655 0.0455482
0.915175 0.192172 0.047715
0.9252 0.19646 0.0505684
0.935073 0.200793 0.0533455
0.944778 0.205341 0.0561532
0.954391 0.209949 0.0601053
0.96318 0.21471 0.0637675
0.97052 0.219791 0.0668956
0.00582895 0.071931 0.00108339
0.0441749 0.0749065 0.0012665
0.0544137 0.0764935 0.00161746
0.0647746 0.0772106 0.00201419
0.0747997 0.0771496 0.00239567
0.0854353 0.0776837 0.0021973
0.097322 0.0783398 0.000686656
0.10898 0.0791638 0.000579843
0.122896 0.0801404 0.000656138
0.136568 0.0812085 0.000640879
0.151003 0.0821546 0.000198367
0.166262 0.0818341 0.000335698
0.183642 0.0825971 0.000198367
0.199603 0.0838331 9.15541e-05
0.216632 0.0851759 0.000259403
0.234668 0.0862898 0.000350958
0.25304 0.0871748 0.00030518
0.272053 0.0876173 0.000198367
0.290898 0.0880751 0.000198367
0.310643 0.0893873 0.000137331
0.329778 0.0907301 6.10361e-05
0.347875 0.0918288 0.000167849
0.366064 0.0927596 0.000228885
0.383993 0.094255 0.000289921
0.402075 0.096788 0.000411994
0.419715 0.0992142 0.00112917
0.438636 0.100587 0.00144961
0.458122 0.10135 0.00155642
0.476509 0.102617 0.00135805
0.495003 0.104662 0.00241093
0.513313 0.106935 0.00366217
0.531197 0.109285 0.00486763
0.548623 0.111269 0.00508125
0.565606 0.113298 0.00511177
0.582437 0.115724 0.00445563
0.599573 0.118746 0.00477607
0.616739 0.121859 0.00549325
0.633936 0.124285 0.00593576
0.650248 0.127031 0.00633249
0.665232 0.130312 0.00671397
0.6804 0.132891 0.00839246
0.695293 0.135485 0.010071
0.710811 0.138521 0.0123598
0.726207 0.141619 0.0148165
0.74136 0.14522 0.0167544
0.756237 0.149172 0.018265
0.770962 0.152804 0.0190738
0.78526 0.156466 0.0197299
0.798688 0.160311 0.0203861
0.811749 0.164248 0.0213779
0.824063 0.167727 0.0240787
0.836088 0.171374 0.0266423
0.847684 0.175479 0.0297704
0.859098 0.179599 0.0328374
0.870344 0.183902 0.0349279
0.881422 0.188251 0.0367285
0.892409 0.192645 0.0386969
0.903258 0.19704 0.0407111
0.913832 0.201389 0.0429847
0.923812 0.205753 0.0458228
0.933669 0.210117 0.0486152
0.943435 0.214527 0.052491
0.953063 0.218952 0.0565347
0.96173 0.22356 0.0602121
0.9691 0.228473 0.0634165
0.00628672 0.0833906 0.00192264
0.0469368 0.0864729 0.00106813
0.0562448 0.0884108 0.00135805
0.0664225 0.0884413 0.000976577
0.0764172 0.087953 0.000869764
0.0871595 0.088716 0.000579843
0.0985885 0.0898756 0.000122072
0.110735 0.0903487 1.5259e-05
0.123415 0.0905013 0
0.137469 0.091371 0.000137331
0.152407 0.0921645 0.000442512
0.168246 0.0922713 0.000564584
0.185809 0.0929122 0.000259403
0.202502 0.0937514 3.0518e-05
0.219776 0.0950637 0.000259403
0.236789 0.0964065 0.000488289
0.255634 0.0967727 0.000442512
0.274327 0.0971084 0.000289921
0.292821 0.0977951 0.000137331
0.311131 0.0989242 9.15541e-05
0.32987 0.100099 3.0518e-05
0.34757 0.10161 0.00030518
0.36405 0.104097 0.000366217
0.381842 0.105852 0.000427253
0.399695 0.108339 0.000488289
0.41886 0.10956 0.000701915
0.437263 0.111055 0.000686656
0.456138 0.112139 0.00077821
0.47425 0.113497 0.000732433
0.493629 0.11574 0.000671397
0.512474 0.11812 0.000595102
0.53019 0.120378 0.00167849
0.547936 0.121706 0.00172427
0.564797 0.123796 0.00202945
0.581262 0.126253 0.00260929
0.598459 0.128313 0.00283818
0.615518 0.131182 0.00328069
0.632578 0.133654 0.00376898
0.648661 0.136324 0.00421149
0.663645 0.139437 0.00462348
0.67837 0.14255 0.00503548
0.692958 0.146014 0.00598154
0.708171 0.149798 0.00677501
0.723613 0.153445 0.00877394
0.738781 0.157122 0.0107118
0.753704 0.160754 0.0124666
0.768444 0.164111 0.0135958
0.78294 0.167498 0.0146792
0.797177 0.170916 0.0157015
0.810391 0.174594 0.0165866
0.822934 0.178515 0.0184482
0.83473 0.182391 0.0217441
0.846326 0.186282 0.024979
0.857771 0.190188 0.0281376
0.869017 0.194308 0.0302129
0.88011 0.198444 0.032105
0.891051 0.202594 0.0340734
0.902052 0.206851 0.036759
0.912642 0.211124 0.0393378
0.922545 0.215457 0.0417487
0.932342 0.219821 0.0449683
0.942061 0.224186 0.0487221
0.951705 0.228412 0.0528267
0.96025 0.232883 0.0565347
0.96817 0.237369 0.0602274
0.00921645 0.095201 0.0027924
0.0471962 0.0974289 0.00111391
0.0600137 0.0975052 0.000686656
0.0697642 0.097612 0.000289921
0.0796979 0.0984207 0.000259403
0.0899825 0.0997787 7.62951e-05
0.100603 0.100679 1.5259e-05
0.112886 0.101122 0.00015259
0.124804 0.101701 0.000198367
0.140383 0.10219 4.57771e-05
0.155138 0.10312 0.00030518
0.170367 0.10338 0.000411994
0.186557 0.10367 0.000274662
0.20415 0.104585 7.62951e-05
0.222354 0.105989 1.5259e-05
0.239445 0.107073 0.000167849
0.258396 0.106722 0.000183108
0.277256 0.106722 0.00015259
0.295659 0.107424 1.5259e-05
0.31284 0.109056 4.57771e-05
0.330098 0.110628 3.0518e-05
0.347738 0.112245 0.000183108
0.364034 0.115038 0.000198367
0.382116 0.116838 0.000244144
0.40061 0.118456 0.000274662
0.419257 0.119844 0.000427253
0.437034 0.121477 0.000289921
0.454459 0.123156 0.00015259
0.472282 0.124712 0.000137331
0.491585 0.127092 9.15541e-05
0.510643 0.129671 7.62951e-05
0.529229 0.132174 6.10361e-05
0.546914 0.134096 7.62951e-05
0.563806 0.136187 0.000640879
0.580301 0.138338 0.0012665
0.597711 0.140017 0.00148013
0.614832 0.141741 0.00167849
0.631464 0.143709 0.00175479
0.647303 0.146899 0.00202945
0.662791 0.150439 0.00273136
0.67776 0.154192 0.00364691
0.6925 0.157961 0.00450141
0.707347 0.161746 0.00444038
0.721935 0.165408 0.00515755
0.736278 0.169055 0.00595102
0.751186 0.172427 0.00767529
0.765759 0.175647 0.00898756
0.779919 0.178958 0.0103609
0.793851 0.182284 0.0116884
0.807294 0.185763 0.0131075
0.819974 0.189624 0.01561
0.832425 0.193484 0.0180667
0.844694 0.19736 0.0204929
0.856428 0.20116 0.023331
0.867765 0.205097 0.0256962
0.878996 0.209079 0.0282292
0.890059 0.213062 0.0307317
0.900984 0.21706 0.0332799
0.911498 0.221149 0.0359045
0.921447 0.22533 0.0390631
0.931289 0.229541 0.0428016
0.940978 0.233738 0.0464942
0.950347 0.238117 0.0497597
0.959487 0.242237 0.0535897
0.968536 0.246067 0.0580301
0.00793469 0.108324 0.00134279
0.0487984 0.109407 0.000671397
0.0592966 0.11043 0.00030518
0.0681926 0.110872 6.10361e-05
0.0788891 0.111528 6.10361e-05
0.0897231 0.112322 3.0518e-05
0.101152 0.113146 0.000183108
0.113497 0.113985 0.00047303
0.126879 0.114412 0.000518807
0.142809 0.114549 0.000289921
0.158602 0.114839 4.57771e-05
0.173434 0.11519 9.15541e-05
0.188006 0.11545 0.000137331
0.20618 0.116472 0.000122072
0.22414 0.118044 4.57771e-05
0.241733 0.119081 0
0.259632 0.119417 1.5259e-05
0.277806 0.11986 4.57771e-05
0.294972 0.121309 0.000274662
0.312215 0.122759 0.000366217
0.329732 0.123949 0.000289921
0.347662 0.12491 0.000122072
0.364446 0.126772 4.57771e-05
0.383124 0.128008 0.000137331
0.401175 0.129671 0.000228885
0.419104 0.131472 0.000244144
0.437476 0.133364 0.000122072
0.45507 0.135363 4.57771e-05
0.472724 0.137575 1.5259e-05
0.490837 0.139834 4.57771e-05
0.50927 0.142107 4.57771e-05
0.527596 0.144274 7.62951e-05
0.545159 0.145998 9.15541e-05
0.562676 0.147799 0.000137331
0.580163 0.150042 0.000183108
0.597086 0.152377 0.000457771
0.613703 0.154681 0.000762951
0.630014 0.157046 0.00106813
0.646159 0.160067 0.00141909
0.662058 0.163272 0.00183108
0.677501 0.166598 0.00238041
0.692241 0.170153 0.0031281
0.707042 0.173724 0.00309758
0.721355 0.177386 0.00334173
0.735348 0.180987 0.00416571
0.749142 0.184436 0.00486763
0.762768 0.187655 0.00538643
0.776486 0.190845 0.0062562
0.790646 0.193942 0.0080415
0.804273 0.197269 0.0106508
0.816739 0.200931 0.0131228
0.829465 0.204639 0.0154726
0.842771 0.208545 0.017258
0.855741 0.212436 0.0191043
0.866987 0.216236 0.0219272
0.878065 0.22005 0.0247044
0.889067 0.22385 0.0273442
0.899977 0.227634 0.0298772
0.910399 0.231556 0.033051
0.920394 0.235569 0.0368658
0.929931 0.239857 0.0400702
0.939315 0.244175 0.0431678
0.948562 0.248478 0.0462348
0.957732 0.252354 0.0502632
0.966796 0.255985 0.0547646
0.009308 0.122698 0.000106813
0.0498817 0.122942 0.000442512
0.059968 0.123995 7.62951e-05
0.0699168 0.124437 0.000213626
0.0804456 0.125063 0.000274662
0.0913863 0.125841 0.00030518
0.101671 0.127092 9.15541e-05
0.113664 0.127962 0.000350958
0.127123 0.128298 0.00030518
0.142092 0.128634 0.00015259
0.157794 0.128969 1.5259e-05
0.174334 0.129213 1.5259e-05
0.189807 0.129549 4.57771e-05
0.208911 0.130571 3.0518e-05
0.225742 0.131838 1.5259e-05
0.242893 0.13228 0
0.259937 0.132662 0.000122072
0.277089 0.133684 0.000320439
0.29424 0.135149 0.000457771
0.312062 0.136538 0.000457771
0.329519 0.138231 0.000381476
0.346944 0.139467 0.000167849
0.364019 0.140963 7.62951e-05
0.381872 0.142123 0.000350958
0.399664 0.143725 0.000457771
0.418189 0.145251 0.000488289
0.437263 0.146822 0.000259403
0.455985 0.14847 4.57771e-05
0.473777 0.150576 3.0518e-05
0.491707 0.152895 6.10361e-05
0.509361 0.155062 6.10361e-05
0.526711 0.157275 6.10361e-05
0.544152 0.159335 6.10361e-05
0.561517 0.161364 7.62951e-05
0.578912 0.163607 9.15541e-05
0.595697 0.16611 7.62951e-05
0.612268 0.168597 6.10361e-05
0.628748 0.170703 0.000320439
0.644556 0.173678 0.00134279
0.660456 0.176761 0.00158694
0.676127 0.179965 0.0016022
0.691325 0.183185 0.00164797
0.705837 0.186389 0.00175479
0.720058 0.189899 0.00175479
0.73402 0.193347 0.00236515
0.747814 0.196536 0.0030518
0.761425 0.199557 0.00361639
0.77525 0.202579 0.00492866
0.789151 0.205783 0.00648508
0.802716 0.209308 0.00753796
0.815702 0.21294 0.00917067
0.829175 0.216617 0.0110781
0.842451 0.220295 0.0129397
0.855222 0.223987 0.0149691
0.866453 0.227588 0.0178683
0.877531 0.231205 0.0207218
0.888457 0.234821 0.0235142
0.898909 0.238544 0.0266728
0.908858 0.242618 0.0298924
0.918593 0.246754 0.0332647
0.928145 0.250858 0.0365148
0.93756 0.254963 0.0397345
0.946853 0.259068 0.0428931
0.956054 0.262669 0.0471656
0.965164 0.266117 0.0517739
0.0121614 0.136416 0.000534066
0.0504768 0.137728 9.15541e-05
0.062623 0.138323 3.0518e-05
0.0730297 0.138567 0.000335698
0.0835279 0.138827 0.000656138
0.0941787 0.139895 0.000640879
0.103471 0.141436 0.000289921
0.114412 0.142245 7.62951e-05
0.127703 0.142626 1.5259e-05
0.142 0.143236 0
0.158343 0.143877 0
0.17464 0.144259 0
0.191196 0.14493 0.000244144
0.209125 0.145998 0.000366217
0.225299 0.147204 0.000350958
0.242664 0.147906 1.5259e-05
0.259174 0.148501 7.62951e-05
0.277028 0.149157 0.000137331
0.295232 0.149798 9.15541e-05
0.312398 0.151125 0.000137331
0.329351 0.15285 0.000106813
0.346258 0.154528 6.10361e-05
0.363653 0.155795 4.57771e-05
0.381415 0.156924 0.000274662
0.398901 0.158145 0.000503548
0.417975 0.160006 0.000564584
0.437201 0.161761 0.000366217
0.45597 0.163668 0.000106813
0.474525 0.165118 3.0518e-05
0.492653 0.16672 1.5259e-05
0.51017 0.16875 1.5259e-05
0.527382 0.170794 1.5259e-05
0.544305 0.172885 0
0.560922 0.175006 0
0.57789 0.177127 0
0.594766 0.179583 0
0.611337 0.182132 0
0.627619 0.184787 0
0.643534 0.187869 0
0.659342 0.190906 7.62951e-05
0.674952 0.193896 0.000167849
0.689982 0.196887 0.00030518
0.704448 0.199878 0.000488289
0.718685 0.202899 0.000656138
0.732708 0.205936 0.000823987
0.746853 0.208927 0.00122072
0.761059 0.212192 0.00209049
0.775051 0.215488 0.00294499
0.788846 0.21883 0.00378424
0.802441 0.22208 0.00512703
0.815839 0.225299 0.00675975
0.828962 0.228702 0.00805676
0.841794 0.232425 0.00886549
0.854322 0.235904 0.0111238
0.865461 0.239368 0.0136568
0.876402 0.242878 0.0155337
0.886854 0.246448 0.018555
0.897032 0.250065 0.0219883
0.906996 0.254002 0.0252689
0.916793 0.258045 0.0284581
0.926436 0.261952 0.0324102
0.935958 0.265843 0.036408
0.945296 0.269749 0.0399786
0.954528 0.273243 0.0441138
0.963607 0.276921 0.047715
0.0130312 0.153643 0.00030518
0.0495613 0.156268 4.57771e-05
0.062211 0.155962 0.000381476
0.0719921 0.156329 0.000686656
0.0824598 0.157015 0.000564584
0.0931563 0.157961 0.00030518
0.10248 0.159197 1.5259e-05
0.115343 0.158663 1.5259e-05
0.128283 0.158389 1.5259e-05
0.143465 0.158953 0
0.159747 0.159625 0
0.175769 0.160571 7.62951e-05
0.19202 0.161303 0.000457771
0.208209 0.16202 0.000823987
0.225147 0.162249 0.000595102
0.242267 0.163043 0.000289921
0.259144 0.163958 3.0518e-05
0.276768 0.16492 0
0.294545 0.165682 0
0.312642 0.166476 0.000167849
0.330083 0.16791 0.000320439
0.346761 0.169711 0.000396735
0.36405 0.170718 0.000183108
0.382712 0.171878 6.10361e-05
0.400031 0.172946 0.000274662
0.419699 0.175021 0.000289921
0.438514 0.176852 0.000320439
0.456596 0.178378 0.000228885
0.474998 0.179461 0.000198367
0.493065 0.180697 0.000167849
0.510582 0.182742 1.5259e-05
0.528313 0.184726 4.57771e-05
0.545174 0.186908 7.62951e-05
0.561486 0.189364 0.000122072
0.578119 0.191318 7.62951e-05
0.59443 0.193484 9.15541e-05
0.61088 0.195804 9.15541e-05
0.627085 0.198322 9.15541e-05
0.642924 0.201221 9.15541e-05
0.658488 0.204227 9.15541e-05
0.673732 0.207553 3.0518e-05
0.688792 0.210559 9.15541e-05
0.703578 0.213336 0.000228885
0.71812 0.216159 0.000381476
0.732433 0.219104 0.000518807
0.747051 0.222263 0.000946059
0.761425 0.225376 0.00117494
0.775525 0.228519 0.00155642
0.789273 0.231662 0.00241093
0.802823 0.234699 0.00389105
0.816175 0.23772 0.00552377
0.828824 0.241123 0.00669871
0.84097 0.244923 0.00717174
0.852689 0.248554 0.00732433
0.864027 0.251652 0.00762951
0.874662 0.254932 0.0102846
0.884993 0.25835 0.0138399
0.895171 0.261769 0.0173495
0.905135 0.265568 0.020676
0.914946 0.269444 0.0239414
0.92462 0.273335 0.0272068
0.934218 0.277287 0.0316625
0.943679 0.281239 0.0360571
0.952895 0.28484 0.0393683
0.96199 0.288426 0.0425879
0.0129549 0.172778 0.000518807
0.0497597 0.17464 0.000228885
0.0619211 0.174105 0.000488289
0.0721294 0.173663 0.000488289
0.0824903 0.174334 0.000244144
0.0929122 0.175204 3.0518e-05
0.104036 0.175692 0
0.116335 0.175235 0
0.128893 0.174884 1.5259e-05
0.144381 0.17528 7.62951e-05
0.160174 0.176043 7.62951e-05
0.175952 0.177081 6.10361e-05
0.191775 0.177783 0.00015259
0.207584 0.178546 0.000457771
0.225971 0.178607 0.000549325
0.24332 0.179019 0.000381476
0.260533 0.179828 0.000183108
0.276875 0.18117 6.10361e-05
0.29369 0.182193 0
0.312047 0.182788 0.00030518
0.330007 0.183612 0.000610361
0.347417 0.184665 0.000823987
0.364752 0.185321 0.000518807
0.383154 0.186618 0.000213626
0.401831 0.188022 1.5259e-05
0.420478 0.189837 3.0518e-05
0.439094 0.191913 7.62951e-05
0.456291 0.193286 0.000183108
0.474845 0.195163 0.000137331
0.492622 0.196536 4.57771e-05
0.510094 0.198062 3.0518e-05
0.528023 0.199969 0.000137331
0.545632 0.201938 0.000244144
0.562097 0.204166 0.00030518
0.578866 0.205676 0.000198367
0.595193 0.207477 0.000167849
0.610864 0.209857 0.000167849
0.626612 0.212406 0.00015259
0.642313 0.215457 0.000137331
0.657755 0.218555 0.000122072
0.672892 0.221912 7.62951e-05
0.688243 0.224475 3.0518e-05
0.70341 0.226932 1.5259e-05
0.718135 0.229633 6.10361e-05
0.732372 0.232486 0.000213626
0.747204 0.235584 0.000961318
0.761608 0.23856 0.00132753
0.77557 0.241611 0.00144961
0.789212 0.24477 0.00146487
0.801755 0.248402 0.00143435
0.814343 0.251759 0.00231937
0.826795 0.25507 0.00337224
0.839063 0.258412 0.0043946
0.850629 0.261601 0.00543221
0.86154 0.264576 0.00735485
0.872297 0.267597 0.00929274
0.882887 0.270619 0.0112154
0.893355 0.273732 0.0129397
0.903395 0.277577 0.0165866
0.913268 0.281498 0.0202792
0.923003 0.285435 0.0239414
0.932616 0.289357 0.0276036
0.942077 0.293111 0.0319829
0.951293 0.296498 0.0353857
0.96025 0.299748 0.0398566
0.012665 0.193271 0.000228885
0.0513771 0.192782 7.62951e-05
0.0641337 0.191882 0.000183108
0.0745708 0.191012 0.000167849
0.0848554 0.190784 7.62951e-05
0.0950637 0.191409 0
0.105638 0.192004 0
0.116808 0.192264 0
0.131167 0.192248 7.62951e-05
0.146059 0.19237 0.00015259
0.161227 0.192813 0.000183108
0.176715 0.193637 0.000106813
0.192081 0.194491 3.0518e-05
0.20824 0.194949 3.0518e-05
0.226291 0.195041 0.000183108
0.24448 0.195239 0.000335698
0.262119 0.196307 0.000335698
0.278386 0.197742 0.000228885
0.294545 0.199008 0.000122072
0.312154 0.199237 0.000122072
0.329976 0.199985 0.000396735
0.348119 0.201038 0.000518807
0.366979 0.202426 0.000503548
0.384588 0.203479 0.000213626
0.40267 0.204532 6.10361e-05
0.419944 0.205356 3.0518e-05
0.437415 0.206592 1.5259e-05
0.455695 0.208301 3.0518e-05
0.47393 0.209842 3.0518e-05
0.491875 0.211444 4.57771e-05
0.509514 0.213474 7.62951e-05
0.527092 0.215625 0.000137331
0.544549 0.217594 0.000213626
0.561654 0.219654 0.000259403
0.578119 0.222034 0.000244144
0.594156 0.22388 0.000122072
0.609583 0.226246 0.000106813
0.625467 0.22858 0.000106813
0.641413 0.23093 0.000122072
0.657099 0.233341 0.000122072
0.672251 0.236271 0.000106813
0.687556 0.238651 9.15541e-05
0.702647 0.241047 6.10361e-05
0.71751 0.243839 4.57771e-05
0.732174 0.246647 3.0518e-05
0.746685 0.249256 0.000198367
0.760998 0.252354 0.000732433
0.774807 0.255299 0.000747692
0.788327 0.258305 0.00077821
0.800763 0.261799 0.000747692
0.813016 0.265309 0.000717174
